src/assets/outline/TicketStar.svg

<svg width="24" height="24" viewBox="0 0 24 24"  xmlns="http://www.w3.org/2000/svg">
<path d="M17.0002 20.75H7.00022C2.75022 20.75 1.36021 19.48 1.26021 15.52C1.26021 15.32 1.33021 15.12 1.47021 14.98C1.61021 14.84 1.80021 14.75 2.01021 14.75C3.52021 14.75 4.75021 13.51 4.75021 12C4.75021 10.49 3.52021 9.25 2.01021 9.25C1.81021 9.25 1.62021 9.17 1.47021 9.02C1.32021 8.87 1.25021 8.68 1.26021 8.48C1.36021 4.52 2.75022 3.25 7.00022 3.25H17.0002C21.4102 3.25 22.7502 4.59 22.7502 9V15C22.7502 19.41 21.4102 20.75 17.0002 20.75ZM2.79021 16.18C2.96021 18.72 3.82021 19.25 7.00022 19.25H17.0002C20.5802 19.25 21.2502 18.57 21.2502 15V9C21.2502 5.43 20.5802 4.75 17.0002 4.75H7.00022C3.82021 4.75 2.96021 5.29 2.79021 7.82C4.76021 8.2 6.25022 9.93 6.25022 12C6.25022 14.07 4.76021 15.8 2.79021 16.18Z" />
<path d="M9 8.25C8.59 8.25 8.25 7.91 8.25 7.5V4C8.25 3.59 8.59 3.25 9 3.25C9.41 3.25 9.75 3.59 9.75 4V7.5C9.75 7.91 9.41 8.25 9 8.25Z" />
<path d="M9 20.75C8.59 20.75 8.25 20.41 8.25 20V16.5C8.25 16.09 8.59 15.75 9 15.75C9.41 15.75 9.75 16.09 9.75 16.5V20C9.75 20.41 9.41 20.75 9 20.75Z" />
<path d="M13.0401 15.65C12.8001 15.65 12.5601 15.57 12.3601 15.43C12.0001 15.17 11.8201 14.73 11.9001 14.29L12.1101 13.1L11.2401 12.25C10.9201 11.94 10.8101 11.48 10.9401 11.06C11.0801 10.64 11.4401 10.33 11.8801 10.27L13.0801 10.09L13.6201 8.99998C13.8201 8.59998 14.2201 8.34998 14.6601 8.34998C15.1101 8.34998 15.5101 8.59998 15.7001 8.99998L16.2401 10.09L17.4401 10.27C17.8801 10.33 18.2401 10.64 18.3801 11.06C18.5201 11.48 18.4001 11.94 18.0801 12.25L17.2101 13.1L17.4201 14.29C17.5001 14.73 17.3201 15.17 16.9601 15.43C16.6001 15.69 16.1301 15.72 15.7401 15.52L14.6701 14.96L13.5901 15.52C13.4201 15.61 13.2301 15.65 13.0401 15.65ZM12.7701 11.65L13.2801 12.15C13.5601 12.42 13.6801 12.8 13.6201 13.18L13.5001 13.88L14.1301 13.55C14.4701 13.37 14.8701 13.37 15.2101 13.55L15.8401 13.88L15.7201 13.18C15.6601 12.79 15.7801 12.41 16.0601 12.15L16.5701 11.65L15.8701 11.55C15.4901 11.49 15.1601 11.25 14.9901 10.91L14.6801 10.27L14.3701 10.91C14.2001 11.25 13.8701 11.49 13.4901 11.55L12.7701 11.65Z" />
</svg>

<?xml version="1.0" encoding="UTF-8"?>
<svg width="24" height="24" viewBox="0 0 24 24" xmlns="http://www.w3.org/2000/svg">
 <path d="m17 20.75h-10c-4.25 0-5.64-1.27-5.74-5.23 0-0.2 0.07-0.4 0.21-0.54s0.33-0.23 0.54-0.23c1.51 0 2.74-1.24 2.74-2.75s-1.23-2.75-2.74-2.75c-0.2 0-0.39-0.08-0.54-0.23s-0.22-0.34-0.21-0.54c0.1-3.96 1.49-5.23 5.74-5.23h10c4.41 0 5.75 1.34 5.75 5.75v6c0 4.41-1.34 5.75-5.75 5.75zm-14.21-4.57c0.17 2.54 1.03 3.07 4.21 3.07h10c3.58 0 4.25-0.68 4.25-4.25v-6c0-3.57-0.67-4.25-4.25-4.25h-10c-3.18 0-4.04 0.54-4.21 3.07 1.97 0.38 3.46 2.11 3.46 4.18s-1.49 3.8-3.46 4.18z"/>
 <path d="m9 8.25c-0.41 0-0.75-0.34-0.75-0.75v-3.5c0-0.41 0.34-0.75 0.75-0.75s0.75 0.34 0.75 0.75v3.5c0 0.41-0.34 0.75-0.75 0.75z"/>
 <path d="m9 20.75c-0.41 0-0.75-0.34-0.75-0.75v-3.5c0-0.41 0.34-0.75 0.75-0.75s0.75 0.34 0.75 0.75v3.5c0 0.41-0.34 0.75-0.75 0.75z"/>
 <path d="m13.04 15.65c-0.24 0-0.48-0.08-0.68-0.22-0.36-0.26-0.54-0.7-0.46-1.14l0.21-1.19-0.87-0.85c-0.32-0.31-0.43-0.77-0.3-1.19 0.14-0.42 0.5-0.73 0.94-0.79l1.2-0.18 0.54-1.09c0.2-0.4 0.6-0.65 1.04-0.65 0.45 0 0.85 0.25 1.04 0.65l0.54 1.09 1.2 0.18c0.44 0.06 0.8 0.37 0.94 0.79s0.02 0.88-0.3 1.19l-0.87 0.85 0.21 1.19c0.08 0.44-0.1 0.88-0.46 1.14s-0.83 0.29-1.22 0.09l-1.07-0.56-1.08 0.56c-0.17 0.09-0.36 0.13-0.55 0.13zm-0.27-4 0.51 0.5c0.28 0.27 0.4 0.65 0.34 1.03l-0.12 0.7 0.63-0.33c0.34-0.18 0.74-0.18 1.08 0l0.63 0.33-0.12-0.7c-0.06-0.39 0.06-0.77 0.34-1.03l0.51-0.5-0.7-0.1c-0.38-0.06-0.71-0.3-0.88-0.64l-0.31-0.64-0.31 0.64c-0.17 0.34-0.5 0.58-0.88 0.64l-0.72 0.1z"/>
</svg>
